X: 21771
T: THE SNOW DRIFT VALSE #1
C: Composed by Wm. Findlay
R: waltz
B: K\"ohler's Violin Repository, v.2, 1885 p.177 #1
F: http://www.archive.org/details/klersviolinrepos02rugg
Z: 2012 John Chambers <jc:trillian.mit.edu>
U: Q=!diminuendo(!
U: q=!diminuendo)!
M: 3/4
L: 1/8
K: D
uD2 |\
(A2BA^GA) | (d4A2) | c4QB2- | qB2E2F2 |\
G2{d}c2B2 | (A4G2) | F6- | F2(F2G2) |\
(A2BA^GA) | (d4c2) | (e4B2) | (g4f2) |\
e2d2B2 | (c4e2) | d6- | d2z2 :|
|: uA2 |\
(.f3.f)f2 | gafgef | "_>"d6 | "_>"A6 |\
(B4g2) | (A4f2) | e2d2B2 | A2F2A2 |\
(.f3.f)f2 | gafgef | "_>"d6 | "_>"A6 |\
B2(bagf) | e4d2 | (c2f3)ve | d2z2 :|

%%sep 2 1 500

